X:2658
T:Hot Broth
O:england
M:2/2
L:1/8
S:Armitt MS
K:D major
f|d2AFd2AF|Eeed cABc|dfef dfBd|ABAF Add:||:f/2g/2|gfBf dfaf|bgeg egbg|af
df dfaf|Bgfe fdd2|faef dfBd|ABAF Add:||
